X:1
T:Over the Moor
S:Irish Session Tubes. The Orange Book. Brid Crannitch. Ossian. (2003) p.7 number 12.1
N:Variation by Edgar Bolton
N:In key of D rather than more commonly played key of G
Z:Edgar Bolton
M:4/4
R:Reel
K:D
FE |: D3 E FDFA | BcdB AFED | B,E (3EEE EFED | B,E (3EEE EGFE |
D3 E FDFA | BcdB AFED | B,D (3DDD FDED |1 A,DDE D2 FE :|2 A,DDE D2 de ||
|: fd (3ddd edBc | cddB A2 FA | Beed efed | Beed e2 de |
fd (3ddd edBc | cddB A2 FA | Bd (3ddd fded |1 Addc d2 de :|2 Addc d2 FA ||
ABBG GAAF | FGGE F2 ED | B,E (3EEE EFED | B,E (3EEE EFGA |
ABBG GAAF | FGGE F2 ED | B,D (3DDD FDED |1 A,DDE D2 FA :|2 A,DDE D4 ||
